Media/medium.svg

<svg width="48" height="47" viewBox="0 0 48 47" fill="none" xmlns="http://www.w3.org/2000/svg">
<path d="M24.3653 0C11.4536 0 0.984375 10.5225 0.984375 23.5C0.984375 36.4775 11.4536 47 24.3653 47C37.277 47 47.7462 36.4775 47.7462 23.5C47.7462 10.5225 37.277 0 24.3653 0ZM37.7258 13.3079L35.5965 15.3589C35.4086 15.5006 35.3199 15.7314 35.3564 15.9569V31.0483C35.3199 31.2791 35.4086 31.5099 35.5965 31.6463L37.6841 33.6973V34.1537H27.2044V33.7183L29.3598 31.6148C29.5738 31.3998 29.5738 31.3368 29.5738 31.0169V18.8052L23.572 34.1012H22.7631L15.7801 18.8052V29.0603C15.7175 29.4904 15.8688 29.9258 16.1715 30.2353L18.9793 33.6501V34.1065H11.0048V33.6501L13.8126 30.2353C13.9605 30.0817 14.0706 29.8954 14.134 29.6914C14.1975 29.4873 14.2125 29.2712 14.1779 29.0603V17.2054C14.2144 16.8749 14.0892 16.5549 13.8387 16.3294L11.344 13.3079V12.8516H19.0942L25.0751 26.0441L30.341 12.8621H37.7258V13.3079Z" fill="white"/>
</svg>

<svg width="48" height="47" fill="none" xmlns="http://www.w3.org/2000/svg"><path d="M24.365 0C11.454 0 .985 10.523.985 23.5S11.453 47 24.364 47c12.912 0 23.381-10.523 23.381-23.5S37.277 0 24.366 0Zm13.36 13.308-2.129 2.05a.623.623 0 0 0-.24.599v15.091a.614.614 0 0 0 .24.598l2.088 2.051v.457h-10.48v-.436l2.156-2.103c.214-.215.214-.278.214-.598V18.805l-6.002 15.296h-.809L15.78 18.805V29.06c-.063.43.089.866.392 1.175l2.807 3.415v.456h-7.974v-.456l2.808-3.415a1.37 1.37 0 0 0 .365-1.175V17.205a1.02 1.02 0 0 0-.34-.876l-2.494-3.021v-.456h7.75l5.981 13.192 5.266-13.182h7.385v.446Z" fill="#fff"/></svg>
